!!!OTL@@DE: Der rothe Sarafan
!!!COM: Titoff, Nicolai Alexejewitsch
!!!OMD: Allegro moderato
!!!LYR: Ziganow
!!!OCL: Erk, Ludwig
!!!GCO: Deutscher Liederschatz, Band 1
**kern	**kern	**kern
*staff3	*staff2	*staff1
*Ipiano	*Ipiano	*Ivox
*>[A,B,B,C]	*>[A,B,B,C]	*>[A,B,B,C]
*>norep[A,B,C]	*>norep[A,B,C]	*>norep[A,B,C]
*>A	*>A	*>A
=1-	=1-	=1-
*clefF4	*clefG2	*clefG2
*k[f#]	*k[f#]	*k[f#]
*G:	*G:	*G:
*M2/4	*M2/4	*M2/4
*MM116	*MM116	*MM116
8GG\ 8D\ 8G\L	(8B/ 8d/L	8d/
(8D\	8d/ 8b/	8b\
8E\	8c#/ 8b/	8b\
8F#\J)	8cn/) 8a/J	8a/
=2	=2	=2
2GG/ 2D/ 2G/	(8B/ 8g/L	8g/
.	16f#/L	16f#/LL
.	16e/JJ)	16e/JJ
.	(8B/ 8d/L	8d/
.	16e/L	16e/LL
.	16f#/JJ)	16f#/JJ
=3	=3	=3
(4GG/ 4D/ 4G/	8B/ 8d/ 8g/L	8g/
.	(8d/ 8b/	8b\
4EE/) 4E/	8e/ 8g#/ 8cc/	8cc\
.	8d/) 8b/J	8b\
=4	=4	=4
[4AA\ [4E\ [4A\	[4c/ 4e/ (4a/	8a/
.	.	8r
4AA\] 4E\] 4A\]	4c/] 4e/)	4r
=5	=5	=5
8AA\ 8E\ 8A\L	8c/ 8e/L	8e/
(8E\	(8e/ 8cc/	8cc\
8F#\	8d#/ 8cc/	8cc\
8G#\J)	8dn/) 8b/J	8b\
=6	=6	=6
(4AA\ 4A\	(8c/ 8e/ 8b/L	8b\
.	8a/	8a/
4CC#/) 4C#/	8B-/ 8e/ 8g/	8g/
.	8e/J)	8e/
=7	=7	=7
(2DD/ 2D/	8Bn/ 8d/L	8d/
.	(8B/ 8g/	8g/
.	8c/ 8a/	8a/
.	8d/) 8b/J	8b\
=8	=8	=8
(8GG\L)	2B/ 2d/ 2g/	4g/
8D\	.	.
8G\	.	4r
8D\J)	.	.
=9!|:	=9!|:	=9!|:
*>B	*>B	*>B
(4E\	8r	8g/
.	8B/ 8e/ 8g/	8g/
(4GG/)	8r	8f#/
.	8B/ 8e/ 8g/	8e/
=10	=10	=10
(2AA/)	8r	4dd\
.	8c/ 8e/ 8f#/L	.
.	8c/ 8e/ 8f#/	8cc\
.	8c/ 8e/ 8f#/J	8cc\
=11	=11	=11
(2BB/)	8r	8f#/
.	8A/ 8d#/ 8f#/L	8f#/
.	8A/ 8d#/ 8f#/	8.b\
.	8A/ 8d#/ 8f#/J	.
.	.	16a/
=12	=12	=12
2C/)	8r	(4a/
.	8G/ 8e/L	.
.	8G/ 8e/	4g/)
.	8G/ 8e/J	.
=13	=13	=13
(2GG/	8r	8b\
.	8B/ 8e/L	8b\
.	8B/ 8e/	8a/
.	8B/ 8e/J	8g/
=14	=14	=14
2AA/)	8r	4g/
.	8c/ 8e/ 8f#/L	.
.	8c/ 8e/ 8f#/	8f#/
.	8c/ 8e/ 8f#/J	8f#/
=15	=15	=15
4BB\	8r	8B/
.	8G/ 8B/ 8e/	8e/
4BBB\ 4BB\	8r	8g/
.	8A/ 8d#/	8f#/
=16	=16	=16
2EE\ 2E\	8r	4e/
.	8G/ 8B/ 8e/L	.
.	8G/ 8B/ 8e/	4r
.	8G/ 8B/ 8e/J	.
=17:|!	=17:|!	=17:|!
*>C	*>C	*>C
2DD/ 2D/	(8c/ 8f#/L	8a/
.	8d/	8a/
.	8c/ 8f#/	8b\
.	8d/J)	8a/
=18	=18	=18
2GG/ 2D/	(8B/ 8g/L	4g/
.	8d/	.
.	8B/ 8g/	8d/
.	8d/J)	8d/
=19	=19	=19
2DD/ 2D/	8c/ 8f#/L	8a/
.	8d/	8a/
.	8c/ 8f#/	8b\
.	8d/J	8a/
=20	=20	=20
2GG/ 2D/	8B/ 8g/L	4g/
.	8d/	.
.	8B/ 8g/	4r
.	8d/J	.
=21	=21	=21
2DD#/ 2D#/	8f#/ 8a/L	8a/
.	8B/	8cc\
.	8f#/ 8a/	8b\
.	8B/J	8a/
=22	=22	=22
4EE/ 4E/	8r	(8a/L
.	8B/ 8e/ 8g/	8g/J)
4AA/	8r	(8g/L
.	8A/ 8c/ 8f#/	8f#/J)
=23	=23	=23
4BB\	8r	8B/
.	8G/ 8B/ 8e/	8g/
4BB\	8r	8g/
.	8A/ 8B/ 8d#/	8f#/
=24	=24	=24
2E\	8r	4e/
.	8G/ (8B/L	.
.	8B/ 8e/	4r
.	8e/ 8g/J)	.
=25	=25	=25
4DD/ 4D/	8r	8a/
.	8d/ 8f#/ 8a/	8a/
4CC/ 4C/	8r	8b\
.	8d/ 8f#/ 8a/	8cc\
=26	=26	=26
4BBB/ 4BB/	8r	(8ee\L
.	8d/ 8g/	8dd\J)
4CC/ 4C/	8r	(8cc\L
.	8c/ 8e/ 8a/	8a\J)
=27	=27	=27
4DD/ 4D/	8r	8d/
.	8B/ 8d/ 8g/	8b\
4CC/ 4D/	8r	8b\
.	8c/ 8d/ 8f#/	8a/
=28	=28	=28
2GG/ 2G/	8r	4g/
.	8B/ 8d/ 8g/L	.
.	8B/ 8d/ 8g/	4r
.	8B/ 8d/ 8g/J	.
=29	=29	=29
4DD#/ 4D#/	(16f#/ 16a/LL	8b\
.	16B/	.
.	16f#/ 16a/	8cc\
.	(16B/JJ)	.
4BB/	16f#/ 16a/LL	8b\
.	16B/	.
.	16f#/ 16a/	8a/
.	16B/JJ)	.
=30	=30	=30
4EE/ 4E/	(16e/ 16g/LL	(8g/L
.	16B/	.
.	16e/ 16g/	16a/L
.	16B/JJ	16g/JJ
4BB/	16e/ 16g/LL	8f#/)
.	16B/	.
.	16e/ 16g/	8e/
.	16B/JJ)	.
=31	=31	=31
4DD#/ 4D#/	(16f#/ 16a/LL	8b\
.	16B/	.
.	16f#/ 16a/	8cc\
.	16B/JJ	.
4BB/	16f#/ 16a/LL	8b\
.	16B/	.
.	16f#/ 16a/	8a/
.	16B/JJ)	.
=32	=32	=32
2EE/ 2E/	(16e/ 16g/LL	4g/
.	16B/	.
.	16e/ 16g/	.
.	16B/JJ	.
.	16e/ 16g/LL	4r
.	16B/	.
.	16e/ 16g/	.
.	16B/JJ)	.
=33	=33	=33
4DD/ 4D/	8r	8a/
.	8d/ 8f#/ 8a/	8a/
4CC/ 4C/	8r	8b\
.	8d/ 8f#/ 8a/	8cc\
=34	=34	=34
4BBB/ 4BB/	8r	(8ee\L
.	8d/ 8g/	8dd\J)
4CC/ 4C/	8r	(8cc\L
.	8c/ 8e/ 8a/	8a\J)
=35	=35	=35
4DD/ 4D/	8r	8d/
.	8B/ 8d/ 8g/	8d/
4DD/ 4D/	8r	8b\
.	8c/ 8d/ 8f#/	8a/
=36	=36	=36
8GG\L	2B/ 2d/ 2g/	4g/
8D\	.	.
8G\	.	4r
8D\J	.	.
=37	=37	=37
(8GG\L	(8B/ 8d/L	8d/
8D\	8d/ 8b/	8b\
8E\	8c#/ 8b/	8b\
8F#\J)	8cn/) 8a/J	8a/
=38	=38	=38
2GG/ 2D/ 2G/	(8B/ 8g/L	8g/
.	16f#/L	16f#/LL
.	16e/JJ)	16e/JJ
.	(8B/ 8d/L	8d/
.	16e/L	(16e/LL
.	16f#/JJ)	16f#/JJ)
=39	=39	=39
(4GG/ 4D/ 4G/	(8B/ 8d/ 8g/L	8g/
.	8d/ 8b/	8b\
4EE/) 4E/	8e/ 8g#/ 8cc/	8cc\
.	8d/) 8b/J	8b\
=40	=40	=40
[4AA\ [4E\ [4A\	[4c/ 4e/ (4a/	4a/
4AA\] 4E\] 4A\]	4c/] 4e/)	4r
=41	=41	=41
8AA\ 8E\ (8A\L	(8c/ 8e/L	8e/
8E\	8e/ 8cc/	8cc\
8F#\	8d#/ 8cc/	8cc\
8G#\J)	8dn/) 8b/J	8b\
=42	=42	=42
4AA\ 4A\	(8c/ 8e/ 8b/L	8b\
.	8a/	8a/
4CC#/ 4C#/	8B-/ 8e/ 8g/	8g/
.	8e/J)	8e/
=43	=43	=43
2DD/ 2D/	(8Bn/ 8d/L	8d/
.	8B/ 8g/	8g/
.	8c/ 8a/	8a/
.	8d/) 8b/J	8b\
=44	=44	=44
(8GG\L	2B/ 2d/ 2g/	4g/
8D\	.	.
8G\	.	4r
8D\J)	.	.
=45	=45	=45
*	*	*k[]
(8GG\L	(24gg\LL	2r
.	24aa\	.
.	24gg\JJ	.
8D\	8dd\)	.
8F#\ 8c\	(24aa\LL	.
.	24bb\	.
.	24aa\JJ)	.
8D\J)	8dd\	.
=46	=46	=46
(8GG\L	4dd\ 4ddd\	2r
8D\	.	.
8G\ 8B\	8bb\L	.
8D\J)	8gg\J	.
=47	=47	=47
8GG\L	8ff#\ (8ddd\L	2r
8D\	16ee\ 16ccc\L	.
.	16dd\ 16bb\JJ)	.
8F#\ 8c\	8cc\ (8aa\L	.
8D\J	16bb\L	.
.	16aa\JJ)	.
=48	=48	=48
(8GG\L	8b\ 8gg\L	2r
8D\	16dd\ 16ff#\L	.
.	16cc\ 16ee\JJ	.
8G\ 8B\	4b\ 4dd\	.
8D\J)	.	.
=49	=49	=49
(8GG\L	(24gg\LL	2r
.	24aa\	.
.	24gg\JJ)	.
8D\	8dd\	.
8F#\ 8c\	(24aa\LL	.
.	24bb\	.
.	24aa\JJ)	.
8D\J)	8dd\	.
=50	=50	=50
(8GG\L	4dd\ 4ddd\	2r
8D\	.	.
8G\ 8B\	8bb\L	.
8D\J)	8gg\J	.
=51	=51	=51
(8GG\L	8ff#\ (8ddd\L	2r
8D\	16ee\ 16ccc\L	.
.	16dd\ (16bb\JJ)	.
8F#\ 8c\	8cc\ 8aa\L	.
8D\J)	16bb\L	.
.	16aa\JJ)	.
=52	=52	=52
4GG/ 4G/	4b\ (4gg\	2r
4GG/ 4G/	4b\ 4dd\ 4bb\)	.
=53	=53	=53
4GG/ 4G/	4b\ 4dd\ 4gg\	2r
4r	4r	.
==	==	==
*-	*-	*-
!!!ENC: Craig Stuart Sapp
!!!END: 2004/05/27/
!!!EFL: 082/651
